X: 32630
T: Pleasure Palace, The
R: jig
M: 6/8
K: Amajor
|:Ace abf|ega ecA|def ega|ecA B2G|
Ace abf|ega ecA|def ecA|1 ~B3 AcB:|2 ~B3 ABc||
|:d3 c3|~B3 AGF|~E3 ecA|B2A Bcd|c2E FAc|
BAG ABc|1 def edc|~B3 ABc:|2 def ega|ecA B2G||

